X:1
T:Highton, 88.6 D
T:Fred. Schneider, arr by Lowell Mason, 1844
T:Highton, 88.6 D
T:Public Domain
C:Fred. Schneider, arr by Lowell Mason, 1844
Z:Public Domain
%%score ( 1 2 ) ( 3 4 )
L:1/8
M:4/4
K:G
V:1 treble 
V:2 treble 
V:3 bass 
V:4 bass 
V:1
 ([GB][Ac]) | [Bd]2 G2 [FA]2 [GB]2 | [Ac]3 [Fd] [GB]2 ([GB][Ac]) | [Bd]2 G2 [FA]2 [GB]2 | %4
 [Fd]3 [Ac] [GB]2 [GB]2 | A2 [Fd]2 ([Af][Ge])([Fd][E^c]) | [Fd]6 (d^c) | [Fd]2 [FA]2 [Ac]2 [GB]2 | %8
 [FA]3 [^E^G] [FA]2 (d^c) | [Fd]2 [FA]2 [Ac]2 [GB]2 | [FA]3 [^E^G] [FA]2 [Ac]2 | %11
 [GB]2 [Bd]2 [Ac]2 [FA]2 | G6 |] %13
V:2
 x2 | x2 G2 x4 | x8 | x2 G2 x4 | x8 | A2 x6 | x6 F2 | x8 | x6 F2 | x8 | x8 | x8 | G6 |] %13
V:3
 [G,,G,]2 | [G,,G,]2 [B,,D,]2 D,2 D,2 | D,3 D, [D,G,]2 [G,,G,]2 | [G,,G,]2 [B,,D,]2 D,2 D,2 | %4
 [D,A,]3 D, [D,G,]2 [G,,G,]2 | [D,F,]2 [D,A,]2 A,2 [A,,A,]2 | [D,A,]6 D,2 | D,2 D,2 D,2 D,2 | %8
 D,3 D, D,2 D,2 | D,2 D,2 D,2 D,2 | D,3 D, D,2 D,2 | [D,G,]2 [B,,D,]2 [C,D,]2 [D,E,]2 | [G,,B,]6 |] %13
V:4
 x2 | x4 D,2 D,2 | D,3 D, x4 | x4 D,2 D,2 | x3 D, x4 | x4 A,2 x2 | x8 | x8 | x8 | x8 | x8 | x8 | %12
 x6 |] %13

